X:278
T: BRAUT WO IST DEIN KRAENZLEIN
N: E0873
O: Europa, Mitteleuropa, Deutschland, Schlesien, Hainau, Konradsdorf
R: Hochzeits -, Ehestands - Lied
M: 4/4
L: 1/16
K: F
c3c | c6A2f2e2d2c2 | c4z8
A3A | G6G2e2d2A2G2 | A8z4
A3F | E4F4G4B4 | B8z4
f3d | c6A2D2F2E2G2 | F8z4

